assets/icons/level1.svg

<svg height="161.533" viewBox="0 0 169.847 161.533" width="169.847" xmlns="http://www.w3.org/2000/svg"><path d="m73.167 8.541a20 20 0 0 1 23.511 0l61.412 44.618a20 20 0 0 1 7.265 22.361l-23.455 72.194a20 20 0 0 1 -19.021 13.82h-75.91a20 20 0 0 1 -19.021-13.82l-23.458-72.194a20 20 0 0 1 7.265-22.361z" fill="#29c66f"/><path d="m71.541 8.541a20 20 0 0 1 23.511 0l59.785 43.437a20 20 0 0 1 7.263 22.36l-22.833 70.282a20 20 0 0 1 -19.021 13.82h-73.9a20 20 0 0 1 -19.021-13.82l-22.835-70.282a20 20 0 0 1 7.265-22.361z" fill="#fff" transform="translate(1.627 1.547)"/><path d="m69.1 8.541a20 20 0 0 1 23.511 0l57.346 41.664a20 20 0 0 1 7.265 22.361l-7.886 24.271-14.016 43.143c-2.677 8.24-19.021 13.82-19.021 13.82h-70.883a20 20 0 0 1 -19.021-13.82l-21.905-67.414a20 20 0 0 1 7.265-22.361z" fill="#29c66f" transform="translate(4.067 3.865)"/><path d="m48.058 8.541a20 20 0 0 1 23.511 0l36.3 26.376a20 20 0 0 1 7.265 22.361l-13.862 42.676a20 20 0 0 1 -19.021 13.82h-44.873a20 20 0 0 1 -19.021-13.82l-13.867-42.677a20 20 0 0 1 7.265-22.361z" fill="#fff" transform="translate(25.11 23.879)"/><path d="m46.191 8.541a20 20 0 0 1 23.511 0l34.435 25.019a20 20 0 0 1 7.263 22.36l-13.15 40.48a20 20 0 0 1 -19.021 13.82h-42.565a20 20 0 0 1 -19.021-13.82l-13.153-40.48a20 20 0 0 1 7.266-22.36z" fill="#0c0833" transform="translate(26.977 25.656)"/><g fill="#29c66f" font-family="Montserrat-Medium, Montserrat" font-weight="500" letter-spacing="-.002em"><text font-size="64" transform="translate(85.055 104.455)"><tspan x="-19.008" y="0">L</tspan></text><text font-size="36" transform="translate(100.055 84.432)"><tspan x="-6.66" y="0">1</tspan></text></g></svg>

<svg xmlns="http://www.w3.org/2000/svg" width="169.847" height="161.533" viewBox="0 0 169.847 161.533">
  <g id="Group_2109" data-name="Group 2109" transform="translate(-8600.945 19307.955)">
    <path id="Polygon_1" data-name="Polygon 1" d="M73.167,8.541a20,20,0,0,1,23.511,0l61.412,44.618a20,20,0,0,1,7.265,22.361L141.9,147.714a20,20,0,0,1-19.021,13.82H46.969a20,20,0,0,1-19.021-13.82L4.49,75.52a20,20,0,0,1,7.265-22.361Z" transform="translate(8600.945 -19307.955)" fill="#29c66f"/>
    <path id="Polygon_2" data-name="Polygon 2" d="M71.541,8.541a20,20,0,0,1,23.511,0l59.785,43.437A20,20,0,0,1,162.1,74.338L139.267,144.62a20,20,0,0,1-19.021,13.82h-73.9a20,20,0,0,1-19.021-13.82L4.49,74.338a20,20,0,0,1,7.265-22.361Z" transform="translate(8602.572 -19306.408)" fill="#fff"/>
    <path id="Path_4233" data-name="Path 4233" d="M69.1,8.541a20,20,0,0,1,23.511,0l57.346,41.664a20,20,0,0,1,7.265,22.361l-7.886,24.271L135.32,139.98c-2.677,8.24-19.021,13.82-19.021,13.82H45.416a20,20,0,0,1-19.021-13.82L4.49,72.566a20,20,0,0,1,7.265-22.361Z" transform="translate(8605.012 -19304.09)" fill="#29c66f"/>
    <path id="Polygon_10" data-name="Polygon 10" d="M48.058,8.541a20,20,0,0,1,23.511,0l36.3,26.376a20,20,0,0,1,7.265,22.361L101.272,99.954a20,20,0,0,1-19.021,13.82H37.378a20,20,0,0,1-19.021-13.82L4.49,57.277a20,20,0,0,1,7.265-22.361Z" transform="translate(8626.055 -19284.076)" fill="#fff"/>
    <path id="Polygon_11" data-name="Polygon 11" d="M46.191,8.541a20,20,0,0,1,23.511,0L104.137,33.56A20,20,0,0,1,111.4,55.92L98.25,96.4a20,20,0,0,1-19.021,13.82H36.664A20,20,0,0,1,17.643,96.4L4.49,55.92A20,20,0,0,1,11.756,33.56Z" transform="translate(8627.922 -19282.299)" fill="#0c0833"/>
    <text id="L" transform="translate(8686 -19203.5)" fill="#29c66f" font-size="64" font-family="Montserrat-Medium, Montserrat" font-weight="500" letter-spacing="-0.002em"><tspan x="-19.008" y="0">L</tspan></text>
    <text id="_1" data-name="1" transform="translate(8701 -19223.523)" fill="#29c66f" font-size="36" font-family="Montserrat-Medium, Montserrat" font-weight="500" letter-spacing="-0.002em"><tspan x="-6.66" y="0">1</tspan></text>
  </g>
</svg>
